X:1
T:АЛЕКСЕЙ СТАНЧИНСКИЙ ALEXEI STANCHINSKY
T:НОКТЮРН               NOCTURNE
T:(1907)
%%score { ( 1 2 6 ) | ( 3 4 7 ) | ( 5 8 ) } ( 9 10 )
L:1/8
Q:1/4=48
M:12/8
K:E
V:1 treble nm="Piano"
V:2 treble 
V:6 treble 
V:3 treble 
V:4 treble 
V:7 treble 
V:5 treble 
V:8 treble 
V:9 bass nm="Piano" snm="Pno."
V:10 bass 
V:1
!pp!"^Lento" [egc'][eg=c'][egb][Q:1/4=46] [^ceb][ce^a][ce=a][Q:1/4=44] [^Acg][Acf][Ace][Q:1/4=40] !>!e3 | %1
!p![Q:1/4=48] [EG^c][EG=c][EGB][Q:1/4=46] [CEB][CE^A][CE=A][Q:1/4=44] GFC[Q:1/4=40] E3 | %2
[Q:1/4=48]"^cantabile"!p! !>!G2- G/!>!G/ !>!G!>!F!>!G[Q:1/4=46] !>!A2-!mf! A/[Q:1/4=44]!>!^c/ !>!c>!>!=c!>!B | %3
[Q:1/4=48]!p! !>!e"_poco cresc."!<(!!>!d!>!e !>!g2 !>!f/!>!e/!<)![Q:1/4=46]!<(! !>!a!>!g!>!a[Q:1/4=44] !>!^c'>!>!^a!<)!!>!b/!>!=a/ | %4
!mf![Q:1/4=48] !>![Gg]2- [Gg]/!>![Gg]/ !>![Gg]!>![Ff]!>![Cc] !>![Ee]2- [Ee]/!>![Dd]/ !>![Ee]3 | %5
"^dim." !>![^B,^B]!>![Cc]>!>![Ee] !>![Ee]3!p![Q:1/4=40] !>![=Aa]2- [Aa]/[Q:1/4=36]!>![ee']/!pp! !>![e^ge']3 | %6
!p!"^dolce"[Q:1/4=44] [^FB][FB][FB] [^EB][EB][E=A] [=DEA][DEA][DEA] z [FA][CF] | %7
 [^B,=EF][B,EF][B,EF] [B,^DF][DF][DF] [^B,=DF][B,DF][B,D] z [G,C][G,C^E] | %8
!<(! ^EF>!>!B!<)!!>(! !>!A2!>)! !>!F[Q:1/4=40]!pp! !>!f2- f/!>!g/ !>!a3 | %9
"^poco accel."[Q:1/4=48]!f! !>!a[Q:1/4=50]!>(!!>!g[Q:1/4=52]!>!f !>!=e[Q:1/4=54]!>!d[Q:1/4=56]!>!c!>)!"^ritard."!p! !>!=c!>!B[Q:1/4=54]!>!^A!pp! !>!=A[Q:1/4=52]!>!^G!>!^^F | %10
[Q:1/4=48]"^a tempo"!p! !>!G2- G/!>!G/ !>!G!>!F!>!G !>!A2- A/!>!^c/ !>!c>!>!=c!>!B | %11
 !>!e!>!d"_cresc."!>!e !>!g2 !>!f/!>!e/ !>!a!>!g!>!a !>!^c'>!>!^a!>!b/!>!=a/ | %12
"^accel."[Q:1/4=54]!f! !>!=g[Q:1/4=56]!>!^f>!>!g[Q:1/4=58] !>!g>!>!f[Q:1/4=60]!>!f!>(! !>!=f[Q:1/4=56]!>!=e>[Q:1/4=54]!>!f[Q:1/4=52] !>!f>[Q:1/4=50]!>!e!>!e!>)! | %13
"^a tempo"!p! !>!=c2 !>!^c !>!e3 !>!^G2-"^ritard."!>(! G/!>!G/[Q:1/4=46] !>!G>!>!F[Q:1/4=44]!>!F!>)! | %14
[Q:1/4=42]!pp! E3[K:bass]"_smorzando"[Q:1/4=38] ^C=CB,[Q:1/4=36] [^C,B,]2[Q:1/4=32] [=C,^A,] B,3 || %15
[M:3/8]!pp!"^Mosso ed agitato"[Q:1/4=84] (3G,/!<(!E,/G,/(3C/G,/C/(3E/C/E/!<)! | %16
!f! (3[G,G]/C/!>(![G,G]/(3[C^^F]/^A,/[CF]/(3[G,^F]/^B,/[G,F]/ | %17
 (3[CE]/G,/[C-E]/(3[CD]/F,/[^B,=D]/(3[=A,C]/E,/[A,!courtesy!^B,]/!>)! | %18
!pp! (3G,/!<(!E,/G,/(3C/G,/C/(3E/C/E/!<)! | %19
!f! (3[G,G]/C/!>(![G,G]/(3[C^^F]/^A,/[CF]/(3[G,^F]/^B,/[G,F]/ | %20
 (3[CE]/G,/[C-E]/(3[CD]/F,/[B,C]/(3[^A,^B,]/E,/[=A,B,]/!>)! | %21
!pp!"_poco            a                poco"!<(! (3G,/E,/G,/(3C/G,/C/(3E/C/E/ | %22
[K:treble]"_cre    -          -       scen                         -                                  do" (3[^^F,^^F]/[CE]/[F,F]/(3[EG]/[C^^F]/[EG]/(3[=A,=A]/[EG]/[A,A]/ | %23
 (3[E^A]/[^A,G]/[EA-]/(3[A,^EA]/[^^D^^G]/[A,A]/(3[^^F=B]/[^CA]/[FB]/!<)! | %24
!mf! (3D/!<(!B,/D/(3G/D/G/(3B/G/B/!<)! | %25
!ff! (3[Dd]/G/!>(![Dd]/(3[G^^c]/[Ed]/[Gc]/(3[D^c]/^^F/[Dc]/ | %26
 (3[GB]/D/[G-B]/(3[G^A]/C/[^^F=A]/(3[EG]/B,/[E!courtesy!^^F]/!>)! | %27
!mf! (3D/B,/D/"_cre    -          -         -       -        -      scen     -       -        -        -       -         -       -         do"!<(!(3G/D/G/(3B/G/B/ | %28
 (3[Dd]/[B^^c]/[Dd]/(3[Be]/[Ed]/[Be]/(3[^E^e]/[B=e]/[E^e]/ | %29
 (3[=d=g]/[Bf]/[dg]/(3[B^g]/[d=g]/[B^g]/(3[e^a]/[^Ag]/!ff![ea]/!<)! | %30
!p!"_e dolce"[Q:1/4=76] (3([^db]/[B^a]/[db]/)(3([Bf]/[F^e]/[Bf]/)(3([Bg]/[G=d]/[Bg]/) | %31
 (3([Fc]/[C^B]/[Fc]/)(3([C^A]/[^A,^^G]/[CA]/)(3([Fd]/[D=A]/[Fd]/) | %32
 (3[CG]/[G,^^F]/[CG]/"_di        -        mi          -"!>(!(3[=Ec]/[CA]/[Ec]/(3[CA]/[A,!courtesy!^G]/[CA]/ | %33
"_nu         -        en           -         do" (3[C^^F]/[^^F,^F]/[C^^F]/(3[F,D]/[D,C]/[F,D]/(3[^F,=D]/[=D,^B,]/[F,D]/!>)! | %34
[K:bass]!pp![Q:1/4=84] (3G,/!<(!E,/G,/(3C/G,/C/(3E/C/E/!<)! | %35
!f! (3[G,G]/C/!>(![G,G]/(3[C^^F]/^A,/[CF]/(3[G,^F]/^B,/[G,F]/ | %36
 (3[CE]/G,/[C-E]/(3[CD]/F,/[B,C]/(3[^A,^B,]/E,/[=A,B,]/!>)! | %37
"_più"!p!!pp! (3G,/E,/G,/!<(!(3C/G,/C/(3E/C/E/!<)! | %38
[K:treble]!f!"_di    -    mi    -    nu    -    en    -    do" (3=D/!>(!A,/[DA]/(3!courtesy!^C/^A,/[C-^A]/(3C/E,/E/!>)! | %39
!>(! (3^D/[^^F,E]/[CD]/(3=D/[^F,E]/[^B,D]/(3C/E/!>)!E,/ | %40
!p!"^dolce"[Q:1/4=72] (3G/^^F/!<(!G/(3A/G/A/(3^A/^^G/!<)!A/ | %41
!mp!!<(! (3B/^A/B/(3c/B/c/(3=d/c/d/!<)! |!mf!!<(! (3=d/=e/d/(3c/d/c/(3B/c/!f!B/!<)! | %43
!ff!!>(! !>![Aa]2!>)! z |!mf! (3B/^A/!<(!B/(3c/B/c/!<)!!f!(3=d/c/d/ | %45
[Q:1/4=74] (3e/!<(!^d/e/(3f/e/f/(3g/f/g/ |[Q:1/4=76] !>!A!>![Bb](3:2:2!>![^B^b]!<)!!>![cc']/ | %47
!ff![Q:1/4=76]!>(! !>![=d=d']2 !>![^d^d']!>)! | %48
!f![Q:1/4=78] (3[ge']/c/[eg]/(3c'/e/[gc']/(3e'/g/[c'-e']/ | %49
 (3[c'g']/g/[c'-g']/(3[c'^^f']/^^f/[c'd']/(3[=c'^f']/^f/[c'=d']/ | %50
 (3[bf']/f/[b-f']/!>(!(3[b^e']/^e/[bc']/(3[a=e']/=e/[ac']/!>)! | %51
!p! (3:2:2!>![ee']!>![ee']/ (3:2:2!>![dd']!>![^A^a]/ (3:2:2!>![^B^b]!>![Bb]/ | %52
!<(! (3:2:2!>![cc']!>![cc']/ (3:2:2!>![Aa]!>![Aa]/ (3[^G^g]/[Ff]/!<)![Cc]/ | %53
!mf! (3:2:2[Ee][Ee]/-(3:2:2[Ee][Ee]/-(3:2:2[Ee]!ff![Ee]/ | %54
!f![Q:1/4=72] (3:2:2!>![Ee]!>![Ee]/[Q:1/4=70] (3:2:2!>![Dd]!>![^A,^A]/[Q:1/4=68] (3:2:2!>![^B,^B]!>![B,B]/ | %55
[Q:1/4=66] (3:2:2!>![Cc]!>![Cc]/[Q:1/4=62] (3:2:2!>![A,A]!<(!!>![A,A]/[K:bass][Q:1/4=58]"_cres                -              scen                -            do      -" C | %56
[Q:1/4=56] (3x/ [F,^A,C]/ x/[Q:1/4=54] (3x/ [F,A,^B,]/ x/[Q:1/4=52] (3x/ [F,=A,B,]/ x/!<)! | %57
[M:4/8][Q:1/4=32] z[K:treble]!fff![Q:1/4=28]!8va(! (3([c'e'g'c'']/[^be'g'^b']/[=be'g'=b']/)[Q:1/4=26](3[bc'e'b']/[^ac'e'^a']/[=ac'e'=a']/[Q:1/4=24](3[g^ac'g']/[fac'f']/[eac'e']/!8va)! | %58
[Q:1/4=20] (3!>!d'/!>(!=d'/c'/ (3[egc']/[eg^b]/[eg=b]/(3[ceb]/[ce^a]/[ce=a]/(3[_B_de_a]/[Bde=g]/[=GBde]/!>)! | %59
[M:4/16]!f![Q:1/4=20] z/[Q:1/4=16] !>![^A,E^G]/[Q:1/4=12]!>![A,E=G]/!>![=G,A,E]/ | z2 | %61
[M:12/8]!pp![Q:1/4=44] [EG^c][EG=c][EGB][Q:1/4=42] [CEB][CE^A][CE=A][Q:1/4=40] GFC[Q:1/4=38] E3 | %62
"^cantabile"[Q:1/4=44] !>!G2- G/!>!G/ !>!G!>!F!<(!!>!G[Q:1/4=42] !>!A2- A/!>!^c/[Q:1/4=40] !>!c>!>!=c!>!B!<)! | %63
[Q:1/4=44]!p! !>!e!<(!!>!d!>!e !>!g2 !>!f/!>!e/!<)![Q:1/4=42]!mp! !>!a!<(!!>!g!>!a[Q:1/4=40] !>!^c'>!>!^a!>!b/!mf!!>!=a/!<)! | %64
[Q:1/4=44]!p! !>!=g!>!^f>!>!g !>!g>!>!f!>!f!>(! !>!=f!>!=e>!>!f !>!f>!>!e!>!e!>)! | %65
!pp! !>!=c2 !>!^c !>!e3[Q:1/4=40] !>!^G2- G/!>!G/ !>!G>!>!F!>!F | %66
[Q:1/4=36]!pp! E3[K:bass]!>(! ^C=CB, [^C,B,]2 [=C,^A,]!>)! B,3 | %67
[K:treble][Q:1/4=32]!ppp! ^c'=c'b b^a=a gfe !>!!fermata!c!>!!fermata!=c!>!!fermata!B |] %68
V:2
 x9 [Gc][G=c][GB] | x6 [^A,C]2 =A, [G,C][G,=C][G,B,] | %2
 [^CE]!<(![=CE][B,E] [^A,E][=A,E][G,E] [F,D][G,D]!<)![A,D] [G,E]!>(![^A,E][B,G]!>)! | %3
 [EB][EB][EB] [EB][E^A][EA] [=Ae][Ae][Ae] [Ae][Ae][=Ad] | %4
 [ce][=ce][Be] ^c2 F [Fc][Fc][F=c] c[Ec][EB] | =B=B[CB] B[EB][E^A] e[=Ae]d z [EG][EG] | x12 | x12 | %8
 [^E,=B,^D][F,B,D][F,B,D] [A,C][A,C][A,C] [Fc^d][Fcd][FB] [Ac][Ac][Ac] | %9
 [Ac] [Ad]2 A2 [D=G] [DF]2 [DF] [^CE]2 [A,B,D] | %10
 [^CE][=CE][B,E] [^A,E][=A,E][G,E] [F,D][G,D][A,D] [G,E][^A,E][B,G] | %11
 [EB][EB][EB] [EB][E^A][EA] [=Ae][Ae][Ae] [Ae]!>(![Ae][=Ad]!>)! | %12
 _e=d^c [^Gc][^Fc][Fc] _d=c=B [^FB][=EB][EB] | %13
 [EB][EB][EB] EEE [B,E][B,E][^A,CE] [=A,CE][A,CE][A,CD] | %14
 [G,C][G,=C][G,B,][K:bass] [E,G,][E,G,][E,G,] !>!G,!>!^^F,!>!E, [B,,E,G,]3 ||[M:3/8] x3 | x3 | x3 | %18
 x3 | x3 | x3 | x3 |[K:treble] x3 | x3 | x3 | x3 | x3 | x3 | x3 | x3 | x3 | x3 | x3 | x3 | %34
[K:bass] x3 | x3 | x3 | x3 |[K:treble] x3 | x2 C | !>!B, !>!E2 | !>!F3 | %42
 !>![^E^e]!>![Ff](3:2:2!>![=G=g]!>![^G^g]/ | (3f/^e/f/(3e/=e/^e/(3=e/=d/c/ | !>!=D2 !>!=A- | A3 | %46
 (3!>!a/g/a/(3g/f/g/(3f/^e/f/ | (3^b/c'/b/(3=b/=c'/b/(3a/b/a/ | x3 | x3 | x3 | %51
 (3x/ ^a/ x/ (3x/ a/ x/ (3x/ [d!courtesy!=a]/ x/ | (3x/ [g=a]/ x/ (3x/ [c=g]/ x/ (3:2:2x/ c | %53
 (3x/!<(! !>![Fc]/ x/ (3x/ !>![F^B]/ x/ (3x/"_molto" !>![Gc]/ x/!<)! | %54
 (3x/ ^A/ x/ (3x/ A/ x/ (3x/ [D=A]/ x/ | %55
 (3x/ [GA]/ x/ (3x/ [C=G]/ x/[K:bass] (3!>![^G,^G]/!>![F,F]/!>![C,C]/ | %56
 (3:2:2[=E,=E][E,E]/- (3:2:2[E,E][E,E]/- (3:2:2[E,E][E,E]/ |[M:4/8] !>![E,G,CE]4[K:treble] | %58
 [ege'] x x2 |[M:4/16] x2 | x2 |[M:12/8] x6 [^A,C]3 [G,C][G,=C][G,B,] | %62
 [^CE][=CE][B,E] [^A,E][=A,E][G,E] [F,D][G,D][A,D] [G,E][^A,E][B,G] | %63
 [EB][EB][EB] [EB][E^A][EA] [=Ae][Ae][Ae] [Ae][Ae][=Ad] | %64
 _e=d^c [^Gc][^Fc][Fc] _d=c=B [^FB][=EB][EB] | %65
 [EB][EB][EB] EEE [B,E][B,E][^A,CE] [=A,CE][A,CE][A,CD] | %66
 [G,C][G,=C][G,B,][K:bass] [E,G,][E,G,][E,G,] !>!G,!>!^^F,!>!E, [B,,E,G,]3 | %67
[K:treble] [eg][eg][eg] [^ce][ce][ce] [^Ac]3 !>![Ge]3 |] %68
V:3
!ped! [EGc][EG=c][EGB] [CEB][CE^A][CE=A] [^A,CG][A,CF][A,CE] [CE][=CE][B,E] | %1
[K:bass] [E,G,^C][E,G,=C][E,G,B,] [^C,E,B,][C,E,^A,][C,E,=A,] G,F,C, B,,3!ped-up! | %2
!ped! B,,3!ped-up!!ped! B,,3!ped-up!!ped! B,,3!ped-up!!ped! B,,3!ped-up! | %3
!ped! [C,G,B,]2 [C,,C,]!ped-up!!ped! [F,,,F,,] [F,C][F,C]!ped-up!!ped! [=C,,=C,] [=CE][CE]!ped-up!!ped! [B,,,B,,] [B,F][B,F]!ped-up! | %4
!ped! [E,,B,,]2 [B,,E,B,]!ped-up!!ped! [^A,,,^A,,]2 [A,,F,]!ped-up!!ped! [=A,,,=A,,]2 [A,=C]!ped-up!!ped! [G,,,G,,]2 [G,B,]!ped-up! | %5
!ped! [=G,,,=G,,]2 [=G,B,]!ped-up!!ped! [F,,,F,,] [F,B,][F,^A,]!ped-up!!ped! [=F,,,=F,,] [=F,B,E][F,B,D]!ped-up!!ped! [E,,,E,,] [E,B,][E,B,]!ped-up! | %6
!ped! !>!=G,>!<(!!>!^G,!>!^A,/!>!B,/!<)!!mf! !>!B,/!>(!!>!=E/!>!E/!>!=D/!>!D/!>!B,/!>)!!p!!<(! !>!B,2!<)!!mf! !>!D/!>(!!>!C/!>)!!mp!!>(! !>!C2 !>!=A,!ped-up!!>)! | %7
!p!!ped! !>!A,>!<(!!>!F,!>!G,/!>!A,/!<)!!mf! !>!A,/!>(!!>!=D/!>!D/!>!^B,/!>!B,/!>!A,/!>)!!p!!<(! !>!A,2!<)!!mp!!>(! !>!G,/!>!F,/!>)!!>(! !>!^E,2!>)! !>!C,!ped-up! | %8
!ped! [B,,,B,,]3 [F,,C,F,]2[K:treble] c[K:bass] B,,/F,/B,/C/D F,/G/ F2!ped-up! | %9
!ped! B,,,/B,,/^E,/F,/G,/A,/ G/F/C/B,/^A,/=A,/!ped-up!!ped! =CB,^A, =A,G, [B,,,B,,]!ped-up! | %10
!ped! [E,,,E,,]2 B,,!ped-up!!ped! B,,3!ped-up!!ped! B,,3!ped-up!!ped! B,,3!ped-up! | %11
!ped! [C,G,B,]2 [C,,C,]!ped-up!!ped! [F,,,F,,] [F,C][F,C]!ped-up!!ped! [=C,,=C,] [=CE][CE]!ped-up!!ped! [B,,,B,,] [B,F][B,F]!ped-up! | %12
!ped! [_B,,,_B,,] _F_E!ped-up!!ped! [A,,,A,,] [A,^D][A,D]!ped-up!!ped! [_A,,,_A,,] __E_D!ped-up!!ped! [=G,,,=G,,] [=G,^C][G,C]!ped-up! | %13
!ped! [^F,,,^F,,] =G,F,!ped-up!!ped! [=C,,=C,] [C,F,][C,F,]!ped-up!!ped! [B,,,B,,]3!ped-up!!ped! [B,,,,B,,,]3!ped-up! | %14
!ped! E,,6 E,,6!ped-up! ||[M:3/8] (3^^F,,/G,,/A,,/(3^A,,/B,,/^B,,/(3C,/=D,/^D,/ | %16
 (3E,/^E,/=E,/(3D,/E,/D,/(3=D,/^D,/=D,/ | (3C,/^B,,/=B,,/(3^A,,/=A,,/G,,/(3:2:2=G,,F,,/ | %18
 (3^^F,,/G,,/A,,/(3^A,,/B,,/^B,,/(3C,/=D,/^D,/ | (3E,/^E,/=E,/(3D,/E,/D,/(3=D,/^D,/=D,/ | %20
 (3C,/^B,,/=B,,/(3^A,,/=A,,/G,,/(3:2:2^^F,,^F,,/ | (3^^F,,/G,,/A,,/(3^A,,/B,,/^B,,/(3C,/B,,/=B,,/ | %22
 (3^A,,/=A,,/^A,,/(3B,,/A,,/B,,/(3=C,/B,,/C,/ | (3^C,/^B,,/C,/(3^^C,/^^B,,/C,/(3^D,/=E,/D,/ | %24
 (3^^C,/D,/E,/(3^E,/F,/^^F,/(3G,/A,/^A,/ | (3B,/^B,/=B,/(3^A,/B,/A,/(3=A,/^A,/=A,/ | %26
 (3G,/^^F,/^F,/(3^E,/=E,/D,/(3:2:2=D,C,/ | (3^^C,/D,/E,/(3^E,/F,/^^F,/(3G,/A,/^A,/ | %28
 (3:2:2x/ B, (3:2:2x/ =C (3:2:2x/ ^C | (3:2:2x/ =D (3:2:2x/ ^E (3:2:2x/ =E | %30
 [B,,,B,,]/F,/D/F,/^E,,/=D/ | F,,/^A,/C,/F,,/^B,,,/=A,/ | C,,/^E,/^^F,,/=E,/-E,/^^F,,,/ | %33
 G,,,/^A,,/-A,,/=A,,/-A,,/G,,/ | (3^^F,,/G,,/A,,/(3^A,,/B,,/^B,,/(3C,/=D,/^D,/ | %35
 (3E,/^E,/=E,/(3D,/E,/D,/(3=D,/^D,/=D,/ | (3C,/^B,,/=B,,/(3^A,,/=A,,/G,,/(3:2:2^^F,,^F,,/ | %37
 (3^^F,,/G,,/A,,/(3^A,,/B,,/^B,,/(3C,/=D,/C,/ | (3=D,/^D,/=D,/(3^D,/E,/D,/ x | %39
 A,,/=A,,/-A,,/G,,/-G,, |!ped! E,,/B,,/G,/E,/B,/G/!ped-up! |!ped! =D,,/=D,/B,/G/B,/D,/!ped-up! | %42
!ped! C,,/C,/B,/^E/B,/C,/!ped-up! |!ped! F,,/C,/A,/C/A/F,/!ped-up! | %44
!ped! =F,/B,/=A/=D/B,/F,/!ped-up! |!ped! E,/C/c/E/A,/E,/!ped-up! | %46
!ped! ^D,,/^D,/C/A/^D/A,/!ped-up! |!ped! G,,/G,/F/^B/G/G,/!ped-up! | %48
 (3^^F,/G,/A,/(3^A,/B,/^B,/(3C/=D/^D/- |[K:treble] (3[^A,D]/E/D/d/D/ =D | %50
 (3[G,^C]/=D/C/c/C/!arpeggio![G,EA]/c/ |[K:bass] x/ C x3/2[K:treble] | %52
[K:bass] [E,,E,]/[K:treble][E=A]/[K:bass][_E,,_E,]/[K:treble][_E=G]/[K:bass][A,,A,]/^D/ | %53
 [G,,G,]/[K:treble][G,G]/[Gg]/[G,G]/[K:bass][G,,G,]/[C,,C,]/ | x/ C, x3/2 | %55
[K:bass] [E,,,E,,]/[E,A,]/[_E,,,_E,,]/[_E,=G,]/ [A,,,A,,] | [G,,,G,,]/[G,,G,]/[G,G][G,,G,] | %57
[M:4/8] z[K:treble] (3([ceg]/[^Beg]/[=Beg]/)(3[Bce]/[^Ace]/[=Ace]/(3[G^Ac]/[FAc]/[EAc]/ | %58
 (3!>!d/=d/c/ (3[EGc]/[EG^B]/[EG=B]/(3[CEB]/[CE^A]/[CE=A]/(3[_B,_DE_A]/[B,DE=G]/[=G,B,DE]/ | %59
[M:4/16] z/[K:bass] !>![^A,,E,^G,]/!>![A,,E,=G,]/!>![=G,,A,,E,]/ | z2 | %61
[M:12/8] [E,G,^C][E,G,=C][E,G,B,] [^C,E,B,][C,E,^A,][C,E,=A,] G,F,C, B,,3 | %62
!ped! B,,3!ped-up!!ped! B,,3!ped-up!!ped! B,,3!ped-up!!ped! B,,3!ped-up! | %63
!ped! [C,G,B,]2 [C,,C,]!ped-up!!ped! [F,,,F,,] [F,C][F,C]!ped-up!!ped! [=C,,=C,] [=CE][CE]!ped-up!!ped! [B,,,B,,] [B,F][B,F]!ped-up! | %64
!ped! [_B,,,_B,,] _F_E!ped-up!!ped! [A,,,A,,] [A,^D][A,D]!ped-up!!ped! [_A,,,_A,,] __E_D!ped-up!!ped! [=G,,,=G,,] [=G,^C][G,C]!ped-up! | %65
!ped! [^F,,,^F,,] =G,F,!ped-up!!ped! [=C,,=C,] [C,F,][C,F,]!ped-up!!ped! [B,,,B,,]3!ped-up!!ped! [B,,,,B,,,]3!ped-up! | %66
!ped! E,,6 E,,6!ped-up! |[K:treble] ^c=cB B^A=A GFE !>!!fermata!C!>!!fermata!=C!>!!fermata!B, |] %68
V:4
 x9 !>!G,3 |[K:bass] x6 [^A,,C,]2 =A,, E,,2 B,,, | E,,2 B,,, E,,2 B,,, F,,2 B,,, E,,2 B,,, | x12 | %4
 x12 | x12 | =D,3 C,3 [F,,C,]3 F,3 | G,,6 [C,,G,,]6 | x5[K:treble] x[K:bass] x6 | %9
 x6 [D,F,]2 [D,F,] [B,,=E,]2 x | x3 E,,2 B,,, F,,2 B,,, E,,2 B,,, | x12 | x _B,2 x4 _A,2 x x2 | %13
 x12 | E,,,6- E,,,3 E,,,3 ||[M:3/8] C,,2 x | x3 | x3 | C,,2 x | x3 | x3 | C,,2 x | x3 | x3 | %24
 G,,2 x | x3 | x3 | G,,2 x | (3G,,/B,/=G,/-(3G,/=C/G,/-(3G,/^C/G,/ | %29
 (3F,,/=D/F,/-(3F,/D/F,/-(3F,/E/F,/ | x3 | x3 | x3 | G,,,3 | C,,2 x | x3 | x3 | C,,2 x | %38
 F,,^^F,, ^^F,,,/^A,,/- | G,,,2 C,, | x3 | x3 | x3 | x3 | x3 | x3 | x3 | x3 | C,2 x | %49
[K:treble] x2 =A,/=d/ | x3 |[K:bass] [^^F,,^^F,]/C/^A/D/[^F,,^F,]/[K:treble][F^A]/ | %52
[K:bass] x/[K:treble] x/[K:bass] x/[K:treble] x/[K:bass] x | x/[K:treble] x3/2[K:bass] x | %54
 [^^F,,,^^F,,]/C,/^A,/D,/[^F,,,^F,,]/[F,=A,]/ |[K:bass] x3 | x3 |[M:4/8] x[K:treble] x3 | %58
 [CG] x x2 |[M:4/16] x/[K:bass] x3/2 | x2 |[M:12/8] x6 [^A,,C,]3 E,,2 B,,, | %62
 E,,2 B,,, E,,2 B,,, F,,2 B,,, E,,2 B,,, | x12 | x _B,2 x4 _A,2 x x2 | x12 | E,,,6- E,,,3 E,,,3 | %67
[K:treble] [EG][EG][EG] [^CE][CE][CE] [^A,C]3 !>![E,G,E]3 |] %68
V:5
 z12 | z12 | z12 | z12 | z12 | z12 | z12 | z12 | z12 | z12 | z12 | z12 | z12 | z12 | z12 || %15
[M:3/8] z3 | z3 | z3 | z3 | z3 | z3 | z3 | z3 | z3 | z3 | z3 | z3 | z3 | z3 | z3 | z3 | z3 | z3 | %33
 z3 | z3 | z3 | z3 | z3 | z3 | z3 | z3 | z3 | z3 | z3 | z3 | z3 | z3 | z3 | z3 | z3 | z3 | z3 | %52
 z3 | z3 | z3 | z3 | z3 |[M:4/8][K:bass]!fff! !>![C,,,C,,]4 | %58
{/[C,,G,,C,]-} [C,,G,,C,]2- [C,,G,,C,]{/[=C,,=C,]-}[C,,C,] |[M:4/16]"^m. d." =C,2 | !>!B,,2- | %61
[M:12/8] B,,6 z6 | z12 | z12 | z12 | z12 | z12 | z12 |] %68
V:6
 x12 | x12 | x12 | x12 | x12 | x12 | x12 | x12 | x12 | x12 | x12 | x12 | %12
 !>!=G !>!G2 x3 !>!=F !>!F2 x3 | x3 ^AA/=A/A x2 x4 | x3[K:bass] x9 ||[M:3/8] x3 | x3 | x3 | x3 | %19
 x3 | x3 | x3 |[K:treble] x3 | x3 | x3 | x3 | x3 | x3 | x3 | x3 | x3 | x3 | x3 | x3 |[K:bass] x3 | %35
 x3 | x3 | x3 |[K:treble] x3 | x3 | x3 | x3 | x3 | x3 | x3 | x3 | x3 | x3 | x3 | x3 | x3 | x3 | %52
 x3 | x3 | x3 | x2[K:bass] x | x3 |[M:4/8] x[K:treble]!8va(! x3!8va)! | x4 |[M:4/16] x2 | x2 | %61
[M:12/8] x12 | x12 | x12 | !>!=G !>!G2 x3 !>!=F !>!F2 x3 | x3 ^AA/=A/A x2 x4 | x3[K:bass] x9 | %67
[K:treble] x12 |] %68
V:7
 x12 |[K:bass] x12 | x12 | x12 | x12 | x12 | x12 | x12 | x5[K:treble] x[K:bass] x6 | x12 | x12 | %11
 x12 | x12 | x12 | x12 ||[M:3/8] x3 | x3 | x3 | x3 | x3 | x3 | x3 | x3 | x3 | x3 | x3 | x3 | x3 | %28
 =G,,3 | x3 | x3 | x3 | x3 | x3 | x3 | x3 | x3 | x3 | x3 | x3 | x3 | x3 | x3 | x3 | x3 | x3 | x3 | %47
 x3 | x3 |[K:treble] x3 | x3 |[K:bass] x5/2[K:treble] x/ | %52
[K:bass] x/[K:treble] x/[K:bass] x/[K:treble] x/[K:bass] x | x/[K:treble] x3/2[K:bass] x | x3 | %55
[K:bass] x3 | x3 |[M:4/8] x[K:treble] x3 | x4 |[M:4/16] x/[K:bass] x3/2 | x2 |[M:12/8] x12 | x12 | %63
 x12 | x12 | x12 | x12 |[K:treble] x12 |] %68
V:8
 x12 | x12 | x12 | x12 | x12 | x12 | x12 | x12 | x12 | x12 | x12 | x12 | x12 | x12 | x12 || %15
[M:3/8] x3 | x3 | x3 | x3 | x3 | x3 | x3 | x3 | x3 | x3 | x3 | x3 | x3 | x3 | x3 | x3 | x3 | x3 | %33
 x3 | x3 | x3 | x3 | x3 | x3 | x3 | x3 | x3 | x3 | x3 | x3 | x3 | x3 | x3 | x3 | x3 | x3 | x3 | %52
 x3 | x3 | x3 | x3 | x3 |[M:4/8][K:bass] x4 | x4 |[M:4/16] [=C,,,=C,,]2 | !>![B,,,,B,,,]2- | %61
[M:12/8] [B,,,,B,,,]6 x2 x4 | x12 | x12 | x12 | x12 | x12 | x12 |] %68
V:9
 z12 | z12 | z12 | z12 | z12 | z12 | z12 | z12 | z12 | z12 | z12 | z12 | z12 | z12 | z12 || %15
[M:3/8] z3 | z3 | z3 | z3 | z3 | z3 | z3 | z3 | z3 | z3 | z3 | z3 | z3 | z3 | z3 | z3 | z3 | z3 | %33
 z3 | z3 | z3 | z3 | z3 | z3 | z3 | z3 | z3 | z3 | z3 | z3 | z3 | z3 | z3 | z3 | z3 | z3 | z3 | %52
 z3 | z3 | z3 | z3 | z3 |[M:4/8]!fff! !>![^^C,,,^^C,,]4 | %58
{/[^^C,,A,,^^C,]-} [C,,A,,C,]2- [C,,A,,C,]!f!{/[^C,,^C,]-}[C,,C,] |[M:4/16] C,2 |!mf! !>!^B,,2 | %61
[M:12/8] z12 | z12 | z12 | z12 | z12 | z12 | z12 |] %68
V:10
 x12 | x12 | x12 | x12 | x12 | x12 | x12 | x12 | x12 | x12 | x12 | x12 | x12 | x12 | x12 || %15
[M:3/8] x3 | x3 | x3 | x3 | x3 | x3 | x3 | x3 | x3 | x3 | x3 | x3 | x3 | x3 | x3 | x3 | x3 | x3 | %33
 x3 | x3 | x3 | x3 | x3 | x3 | x3 | x3 | x3 | x3 | x3 | x3 | x3 | x3 | x3 | x3 | x3 | x3 | x3 | %52
 x3 | x3 | x3 | x3 | x3 |[M:4/8] x4 | x4 |[M:4/16] [C,,,C,,]2 | !>![^B,,,,^B,,,]2 |[M:12/8] x12 | %62
 x12 | x12 | x12 | x12 | x12 | x12 |] %68

